svg/下载助手1.svg

<svg width="120" height="120" viewBox="0 0 120 120" fill="none" xmlns="http://www.w3.org/2000/svg"><rect width="120" height="120" rx="30" fill="url(#paint1_linear_0_1)"/><path opacity="0.7" d="M66.7099 53.2064C66.1408 52.4276 65.0472 52.331 64.3502 52.9618L61.1015 55.9096V46.6091C61.1015 45.7209 60.3852 45 59.5027 45C58.6202 45 57.904 45.7209 57.904 46.6091V55.9418L54.6617 52.9682C53.9711 52.331 52.8711 52.4276 52.2955 53.1999C51.7967 53.8757 51.9566 54.8412 52.5705 55.4076L58.0702 60.4537C58.8632 61.181 60.0655 61.181 60.8649 60.4601L66.4222 55.414C67.0425 54.8476 67.2023 53.8886 66.7099 53.2128V53.2064Z" fill="#2F323D"/><path opacity="0.7" d="M68.3433 68H51.6567C50.7422 68 50 67.328 50 66.5C50 65.672 50.7422 65 51.6567 65H68.3433C69.2578 65 70 65.672 70 66.5C70 67.328 69.2578 68 68.3433 68Z" fill="#2F323D"/><path d="M76 26C79.3137 26 82 28.6863 82 32V89.4561C82 92.7698 79.3137 95.4561 76 95.4561H43C39.6863 95.4561 37 92.7698 37 89.4561V32C37 28.6863 39.6863 26 43 26H76ZM44.8691 31.8691C43.7649 31.8694 42.8694 32.7649 42.8691 33.8691V80.7393C42.8692 81.8436 43.7648 82.739 44.8691 82.7393H74.1309C75.2352 82.739 76.1308 81.8436 76.1309 80.7393V33.8691C76.1306 32.7649 75.2351 31.8694 74.1309 31.8691H44.8691Z" fill="url(#paint2_linear_0_1)"/><path d="M76 95.4561V95.9561V95.9561V95.4561ZM43 26V25.5V25.5V26ZM44.8691 31.8691V31.3691H44.869L44.8691 31.8691ZM42.8691 33.8691L42.3691 33.869V33.8691H42.8691ZM42.8691 80.7393H42.3691V80.7393L42.8691 80.7393ZM44.8691 82.7393L44.869 83.2393H44.8691V82.7393ZM74.1309 82.7393V83.2393H74.131L74.1309 82.7393ZM76.1309 80.7393L76.6309 80.7393V80.7393H76.1309ZM76.1309 33.8691H76.6309V33.869L76.1309 33.8691ZM74.1309 31.8691L74.131 31.3691H74.1309V31.8691ZM76 26V26.5C79.0376 26.5 81.5 28.9624 81.5 32H82H82.5C82.5 28.4101 79.5899 25.5 76 25.5V26ZM82 32H81.5V89.4561H82H82.5V32H82ZM82 89.4561H81.5C81.5 92.4936 79.0376 94.9561 76 94.9561V95.4561V95.9561C79.5899 95.9561 82.5 93.0459 82.5 89.4561H82ZM76 95.4561V94.9561H43V95.4561V95.9561H76V95.4561ZM43 95.4561V94.9561C39.9624 94.9561 37.5 92.4936 37.5 89.4561H37H36.5C36.5 93.0459 39.4101 95.9561 43 95.9561V95.4561ZM37 89.4561H37.5V32H37H36.5V89.4561H37ZM37 32H37.5C37.5 28.9624 39.9624 26.5 43 26.5V26V25.5C39.4101 25.5 36.5 28.4101 36.5 32H37ZM43 26V26.5H76V26V25.5H43V26ZM44.8691 31.8691L44.869 31.3691C43.4887 31.3694 42.3694 32.4887 42.3691 33.869L42.8691 33.8691L43.3691 33.8692C43.3693 33.0411 44.0411 32.3693 44.8692 32.3691L44.8691 31.8691ZM42.8691 33.8691H42.3691V80.7393H42.8691H43.3691V33.8691H42.8691ZM42.8691 80.7393L42.3691 80.7393C42.3692 82.1198 43.4887 83.239 44.869 83.2393L44.8691 82.7393L44.8692 82.2393C44.0409 82.2391 43.3692 81.5674 43.3691 80.7392L42.8691 80.7393ZM44.8691 82.7393V83.2393H74.1309V82.7393V82.2393H44.8691V82.7393ZM74.1309 82.7393L74.131 83.2393C75.5113 83.239 76.6308 82.1198 76.6309 80.7393L76.1309 80.7393L75.6309 80.7392C75.6308 81.5674 74.9591 82.2391 74.1308 82.2393L74.1309 82.7393ZM76.1309 80.7393H76.6309V33.8691H76.1309H75.6309V80.7393H76.1309ZM76.1309 33.8691L76.6309 33.869C76.6306 32.4887 75.5113 31.3694 74.131 31.3691L74.1309 31.8691L74.1308 32.3691C74.9589 32.3693 75.6307 33.0411 75.6309 33.8692L76.1309 33.8691ZM74.1309 31.8691V31.3691H44.8691V31.8691V32.3691H74.1309V31.8691Z" fill="#CECECE"/><defs><linearGradient id="paint1_linear_0_1" x1="59.25" y1="119.1" x2="60.76" y2="-0.160001" gradientUnits="userSpaceOnUse"><stop stop-color="#D4D4D2"/><stop offset="1" stop-color="#E6E6E5"/></linearGradient><linearGradient id="paint2_linear_0_1" x1="59.5" y1="26" x2="59.5" y2="95.4561" gradientUnits="userSpaceOnUse"><stop stop-color="#979797"/><stop offset="1" stop-color="#1C1C1C"/></linearGradient><clipPath id="clip0_0_1"></clipPath></defs></svg>

<svg fill="none" viewBox="0 0 120 120"><rect width="120" height="120" fill="url(#a)" rx="30"/><path fill="#2F323D" d="M66.71 53.206a1.59 1.59 0 0 0-2.36-.244l-3.248 2.948v-9.3c0-.89-.717-1.61-1.6-1.61-.882 0-1.598.72-1.598 1.61v9.332l-3.242-2.974a1.6 1.6 0 0 0-2.367.232c-.498.676-.338 1.641.276 2.208l5.5 5.046a2.07 2.07 0 0 0 2.794.006l5.557-5.046c.62-.566.78-1.525.288-2.201z" opacity=".7"/><path fill="#2F323D" d="M68.343 68H51.657C50.742 68 50 67.328 50 66.5s.742-1.5 1.657-1.5h16.686c.915 0 1.657.672 1.657 1.5s-.742 1.5-1.657 1.5" opacity=".7"/><path fill="url(#b)" d="M76 26a6 6 0 0 1 6 6v57.456a6 6 0 0 1-6 6H43a6 6 0 0 1-6-6V32a6 6 0 0 1 6-6zm-31.13 5.87a2 2 0 0 0-2 2v46.87a2 2 0 0 0 2 2h29.26a2 2 0 0 0 2-2V33.87a2 2 0 0 0-2-2z"/><path fill="#CECECE" d="M76 95.456v.5zM43 26v-.5zm1.87 5.87v-.5h-.001zm-2 2-.5-.001zm0 46.87h-.5zm2 2-.001.5zm29.26 0v.5h.001zm2-2h.5zm0-46.87h.5v-.001zm-2-2 .001-.5zM76 26v.5a5.5 5.5 0 0 1 5.5 5.5h1a6.5 6.5 0 0 0-6.5-6.5zm6 6h-.5v57.456h1V32zm0 57.456h-.5a5.5 5.5 0 0 1-5.5 5.5v1a6.5 6.5 0 0 0 6.5-6.5zm-6 6v-.5H43v1h33zm-33 0v-.5a5.5 5.5 0 0 1-5.5-5.5h-1a6.5 6.5 0 0 0 6.5 6.5zm-6-6h.5V32h-1v57.456zM37 32h.5a5.5 5.5 0 0 1 5.5-5.5v-1a6.5 6.5 0 0 0-6.5 6.5zm6-6v.5h33v-1H43zm1.87 5.87-.001-.5a2.5 2.5 0 0 0-2.5 2.499h1a1.5 1.5 0 0 1 1.5-1.5zm-2 2h-.5v46.87h1V33.87zm0 46.87h-.5a2.5 2.5 0 0 0 2.499 2.5v-1a1.5 1.5 0 0 1-1.5-1.5zm2 2v.5h29.26v-1H44.87zm29.26 0 .001.5a2.5 2.5 0 0 0 2.5-2.5h-1a1.5 1.5 0 0 1-1.5 1.5zm2-2h.5V33.87h-1v46.87zm0-46.87.5-.001a2.5 2.5 0 0 0-2.499-2.5v1a1.5 1.5 0 0 1 1.5 1.5zm-2-2v-.5H44.87v1h29.26z"/><defs><linearGradient id="a" x1="59.25" x2="60.76" y1="119.1" y2="-.16" gradientUnits="userSpaceOnUse"><stop stop-color="#D4D4D2"/><stop offset="1" stop-color="#E6E6E5"/></linearGradient><linearGradient id="b" x1="59.5" x2="59.5" y1="26" y2="95.456" gradientUnits="userSpaceOnUse"><stop stop-color="#979797"/><stop offset="1" stop-color="#1C1C1C"/></linearGradient></defs></svg>
